X: 8
T: Crown Him with Many Crowns
M: 4/4 % time signature
L: 1/4 % default length
%%staves (S1V1 S1V2) | (S2V1 S2V2) 
%%staffsep 0.62cm
V: S1V1 clef=treble 
%%MIDI beat 127 125 110 1
V: S1V2 
%%MIDI beat 127 125 110 1
V: S2V1 clef=bass 
%%MIDI beat 127 125 110 1
V: S2V2 
%%MIDI beat 127 125 110 1
K: D % key signature
%
%%MIDI program 1 0 % Piano 1
%%MIDI program 2 0 % Piano 1
%%MIDI program 3 0 % Piano 1
%%MIDI program 4 0 % Piano 1
%
% 1
[V: S1V1] [Q:1/4=110] D D/D/ F F | B3 B | A D G F | E3
w: 1.~Crown him with man- y crowns, the Lamb up- on his throne. 
w: 2.~Crown him the vir- gin's Son, the God in- car- nate born, 
w: 3.~Crown him the Son of God, be- fore the worlds be- gan, 
w: 4.~Crown him the Lord of life, who tri- umphed o'er the grave, 
w: 5.~Crown him the Lord of peace, whose pow'r a scep- ter sways 
[V: S1V2]  A, A,/A,/ D D | D3 D | D D C D | C3
[V: S2V1]  F, F,/F,/ F, F, | G,3 G, | A, B, G, A, | A,3
[V: S2V2]  D, D,/D,/ B,, B,, | G,,3 G, | F, G, E, D, | A,,3
% 5
[V: S1V1]  E | F A B A | ^G F/E/ A d | c d B B | A3
w: Hark! How the heav'n- ly an- them * drowns all mu- sic but its own. 
w: Whose arm those crim- son tro- phies * won which now his brow a- dorn; 
w: And ye who tread where he hath * trod, crown him the Son of Man; 
w: And rose vic- tor- ious in the * strife for those he came to save. 
w: From pole to pole, that wars may * cease, and all be prayer and praise. 
[V: S1V2]  C | D E D D | B, B, E D | E F B, E | C3
[V: S2V1]  A, | A, A, F, F, | E, ^G, A, =G, | A, A, A, ^G, | A,3
[V: S2V2]  A,, | D, C, B,, D, | E, D, C, B,, | A,, D, E, E, | A,3
% 9
[V: S1V1]  A | A F E D | B3 B | B ^G F E | c3
w: A- wake, my soul, and sing of him who died for thee, 
w: Fruit of the mys- tic rose, as of that rose the stem; 
w: Who ev- ery grief hath known that wrings the hu- man breast, 
w: His glo- ries now we sing, who died, and rose on high, 
w: His reign shall know no end, and round his pierc- ed feet 
[V: S1V2]  C | D D C D | D3 ^D | E E =D D | C3
[V: S2V1]  A, | A, A, G, A, | B,3 A, | ^G, B, A, B, | A,3
[V: S2V2]  =G, | F, D, E, F, | G,3 F, | E, E, F, ^G, | A,3
% 13
[V: S1V1]  !sintro!c | d3/2 c/ B A | G E F A | G F E E | D4 !eintro!|]
w: And hail him as thy match- less King through all e- ter- ni- ty. 
w: The root whence mer- cy ev- er flows, the Babe of Beth- le- hem. 
w: And takes and bears them for his own, that all in him may rest. 
w: Who died e- ter- nal life to bring, and lives that death may die.  
w: Fair flow'rs of pa- ra- dise ex- tend their fra- grance ev- er sweet. 
[V: S1V2]  E | D D D D | D C D D | D D D C | D4 |]
[V: S2V1]  A, | A, A, G, A, | B, A, A, A, | B, A, A,3/2 G,/ | F,4 |]
[V: S2V2]  =G, | F, F, G, F, | E, A, D, F,, | G,, D, A,, A,, | D,4 |]
% 18
%%begintext
%% 6.\tCrown him the Lord of love, behold his hands and side,
%% \t\t\t\tThose wounds, yet visible above, in beauty glorified.
%% \t\t\t\tNo angel in the sky can fully bear that sight,
%% \t\t\t\tBut downward bends his burning eye at mysteries so bright.
%% 
%% 7.\tCrown him the Lord of Heaven, enthroned in worlds above,
%% \t\t\t\tCrown him the King to whom is given the wondrous name of Love.
%% \t\t\t\tCrown him with many crowns, as thrones before him fall;
%% \t\t\t\tCrown him, ye kings, with many crowns, for he is King of all.
%%endtext
%%begintext
%% 8.\tCrown him the Lord of lords, who over all doth reign,
%% \t\t\t\tWho once on earth, the incarnate Word, for ransomed sinners slain,
%% \t\t\t\tNow lives in realms of light, where saints with angels sing
%% \t\t\t\tTheir songs before him day and night, their God, Redeemer, King.
%% 
%% 9.\tCrown him the Lord of years, the Potentate of time,
%% \t\t\t\tCreator of the rolling spheres, ineffably sublime.
%% \t\t\t\tAll hail, Redeemer, hail! For thou has died for me;
%% \t\t\t\tThy praise and glory shall not fail throughout eternity.
%%endtext



